material/.icons/material/select-drag.svg

<svg xmlns="http://www.w3.org/2000/svg" viewBox="0 0 24 24"><path d="M13 17h4v-4h2v4h4v2h-4v4h-2v-4h-4v-2m-2 0v2H9v-2h2m-4 0v2H5v-2h2m12-8v2h-2V9h2m0-4v2h-2V5h2m-4 0v2h-2V5h2m-4 0v2H9V5h2M7 5v2H5V5h2m0 8v2H5v-2h2m0-4v2H5V9h2z"/></svg>

<?xml version="1.0" encoding="UTF-8"?><!DOCTYPE svg PUBLIC "-//W3C//DTD SVG 1.1//EN" "http://www.w3.org/Graphics/SVG/1.1/DTD/svg11.dtd"><svg xmlns="http://www.w3.org/2000/svg" xmlns:xlink="http://www.w3.org/1999/xlink" version="1.1" id="mdi-select-drag" width="24" height="24" viewBox="0 0 24 24"><path d="M13,17H17V13H19V17H23V19H19V23H17V19H13V17M11,17V19H9V17H11M7,17V19H5V17H7M19,9V11H17V9H19M19,5V7H17V5H19M15,5V7H13V5H15M11,5V7H9V5H11M7,5V7H5V5H7M7,13V15H5V13H7M7,9V11H5V9H7Z" /></svg>
